!!!COM: Mozart, Wolfgang Amadeus
!!!OTL: Musikalische Würfelspiele, Kontre-Tänze
!!!SCA: K<sup>6</sup> Anh. C30.01 (K<sup>3</sup> Anh. 294d)
**kern	**kern
*staff2	*staff2
*clefF4	*clefG2
*M2/4	*M2/4
*MM110	*MM110
*>[A,A1,A,A2,B]	*>[A,A1,A,A2,B]
*>norep[A,A2,B]	*>norep[A,A2,B]
*>A	*>A
=165	=165
4C	8cc
.	16ee
.	16cc
4r	8g
.	8g
=68	=68
4C	8gg
.	16gg
.	16ee
4r	8cc
.	16cc
.	16ee
=57	=57
8G	8ff
16GG	8ff
16AA	.
16BB	8dd
16C	.
16D	8dd
16BB	.
=15	=15
4C	16cc
.	16ee
.	16gg
.	16ee
4C	8cc
.	8cc
=117	=117
16D	8aa
16A	.
16F#	4ff#
16A	.
16D	.
16A	.
16F#	8dd
16A	.
=39	=39
4BB 4G	16gg
.	16ff#
.	16ee
.	16dd
4r	16cc
.	16b
.	16a
.	16g
=73	=73
4C	8ee
.	8gg
4D	8ff#
.	8aa
=172	=172
*>A1	*>A1
4GG	4g 4b 4gg
16G	4r
16F	.
16E	.
16D	.
=172:|!	=172:|!
*>A2	*>A2
4GG	4g 4b 4gg
16GG	4r
16AA	.
16BB	.
16C#	.
=144||	=144||
*>B	*>B
4D	8d
.	16f#
.	16a
4D	8dd
.	8ff#
=157	=157
4G	16gg
.	16aa
.	16bb
.	16ccc
4GG	4ddd
=26	=26
4C	8ee
.	8cc
4C	8gg
.	8ee
=141	=141
4G	8dd
.	8b
4GG	8g
.	8b
=31	=31
8C	8cc
8C	16cc
.	16ee
8C	16gg
.	16ee
8C	16gg
.	16ee
=24	=24
4C	16ccc
.	16bb
.	16aa
.	16gg
4r	16ff
.	16ee
.	16dd
.	16cc
=60	=60
8G	8ff
16GG	8ff
16AA	.
16BB	8dd
16C	.
16D	8dd
16BB	.
=47	=47
4C	4cc
4CC	4c
==	==
*-	*-
